svgs/light/face-tissue.svg

<svg xmlns="http://www.w3.org/2000/svg" viewBox="0 0 512 512"><!--! Font Awesome Pro 6.4.0 by @fontawesome - https://fontawesome.com License - https://fontawesome.com/license (Commercial License) Copyright 2023 Fonticons, Inc. --><path d="M256 32C132.3 32 32 132.3 32 256c0 8.8-7.2 16-16 16s-16-7.2-16-16C0 114.6 114.6 0 256 0S512 114.6 512 256s-114.6 256-256 256c-8.8 0-16-7.2-16-16s7.2-16 16-16c123.7 0 224-100.3 224-224S379.7 32 256 32zm39.1 306.7c5.4-3.6 12.4-3.6 17.8 0l40.3 26.8 23.7-11.8c7.9-4 17.5-.7 21.5 7.2s.7 17.5-7.2 21.5l-32 16c-5.1 2.6-11.3 2.2-16-1L304 371.2l-39.1 26.1c-7.4 4.9-17.3 2.9-22.2-4.4s-2.9-17.3 4.4-22.2l48-32zM136.5 190.3c-7.9-4-11.1-13.6-7.2-21.5s13.6-11.1 21.5-7.2l64 32c5.4 2.7 8.8 8.3 8.8 14.3s-3.4 11.6-8.8 14.3l-64 32c-7.9 4-17.5 .7-21.5-7.2s-.7-17.5 7.2-21.5L171.9 208l-35.4-17.7zm246.2-21.5c4 7.9 .7 17.5-7.2 21.5L340.2 208l35.4 17.7c7.9 4 11.1 13.6 7.2 21.5s-13.6 11.1-21.5 7.2l-64-32c-5.4-2.7-8.8-8.3-8.8-14.3s3.4-11.6 8.8-14.3l64-32c7.9-4 17.5-.7 21.5 7.2zM223.8 306.6l-32 192c-1.1 6.7-6.3 11.9-13 13.1s-13.4-1.9-16.7-7.8l-26-45.5L51.9 479.5c-5.5 1.4-11.2-.2-15.2-4.2s-5.6-9.7-4.2-15.2l21.1-84.2-45.5-26c-5.9-3.4-9-10-7.8-16.7s6.4-11.9 13.1-13l192-32c5.1-.8 10.3 .8 13.9 4.5s5.3 8.8 4.5 13.9zM79.9 354.1c6.2 3.6 9.3 10.8 7.6 17.8L70 442l70.1-17.5c7-1.7 14.2 1.4 17.8 7.6l9.7 17 20.9-125.6L62.9 344.4l17 9.7z"/></svg>

<svg xmlns="http://www.w3.org/2000/svg" viewBox="0 0 512 512"><!--! Font Awesome Pro 6.3.0 by @fontawesome - https://fontawesome.com License - https://fontawesome.com/license (Commercial License) Copyright 2023 Fonticons, Inc. --><path d="M256 32C132.3 32 32 132.3 32 256C32 264.8 24.84 272 16 272C7.165 272 .0016 264.8 .0016 256C.0016 114.6 114.6 0 256 0C397.4 0 512 114.6 512 256C512 397.4 397.4 512 256 512C247.2 512 240 504.8 240 496C240 487.2 247.2 480 256 480C379.7 480 480 379.7 480 256C480 132.3 379.7 32 256 32V32zM295.1 338.7C300.5 335.1 307.5 335.1 312.9 338.7L353.2 365.5L376.8 353.7C384.7 349.7 394.4 352.9 398.3 360.8C402.3 368.7 399.1 378.4 391.2 382.3L359.2 398.3C354 400.9 347.9 400.5 343.1 397.3L304 371.2L264.9 397.3C257.5 402.2 247.6 400.2 242.7 392.9C237.8 385.5 239.8 375.6 247.1 370.7L295.1 338.7zM136.5 190.3C128.6 186.4 125.4 176.7 129.3 168.8C133.3 160.9 142.9 157.7 150.8 161.7L214.8 193.7C220.2 196.4 223.6 201.9 223.6 207.1C223.6 214.1 220.2 219.6 214.8 222.3L150.8 254.3C142.9 258.3 133.3 255.1 129.3 247.2C125.4 239.3 128.6 229.6 136.5 225.7L171.9 207.1L136.5 190.3zM382.7 168.8C386.6 176.7 383.4 186.4 375.5 190.3L340.2 208L375.5 225.7C383.4 229.6 386.6 239.3 382.7 247.2C378.7 255.1 369.1 258.3 361.2 254.3L297.2 222.3C291.8 219.6 288.4 214.1 288.4 208C288.4 201.9 291.8 196.4 297.2 193.7L361.2 161.7C369.1 157.7 378.7 160.9 382.7 168.8V168.8zM191.8 498.6C190.7 505.3 185.5 510.6 178.8 511.8C172.2 512.9 165.5 509.8 162.1 503.9L136.1 458.5L51.88 479.5C46.43 480.9 40.66 479.3 36.69 475.3C32.71 471.3 31.12 465.6 32.48 460.1L53.54 375.9L8.063 349.9C2.187 346.5-.9405 339.8 .2509 333.2C1.442 326.5 6.696 321.3 13.37 320.2L205.4 288.2C210.5 287.4 215.7 289 219.3 292.7C222.1 296.3 224.6 301.5 223.8 306.6L191.8 498.6zM87.52 371.9L69.99 442L140.1 424.5C147.1 422.7 154.3 425.8 157.9 432.1L167.6 449.1L188.5 323.5L62.94 344.4L79.94 354.1C86.16 357.7 89.26 364.9 87.52 371.9V371.9z"/></svg>
